X: 1673
T: The Glen Hornpipe
M:4/4
L:1/8
B:O'Neill's 1673
N:"collected by Fielding"
K:D
(3ABc \
| {e}d>cd>fA>BA>G | F>Ad>fa2g>f | (3gbg e>g (3faf d>f | (3ege c>ed>cB>c |
| {e}d>cd>fA>BA>G | F>Ad>fa2 g>f | (3gbg e>g (3faf d>f | (3efe (3ABc d2 :|
|: Bc \
| d>gf>g b>gf>g | B>dc>d g>dc>d | e>dc>da>dc>d | e>dc>d b>gf>g |
| d>gf>g b>gf>g | b>dc>dg>dc>d | e>dc>da>dc>d | e>dc>d g2 :|


